src/img/projects/php.svg

<?xml version="1.0" encoding="UTF-8"?>
<svg width="90px" height="90px" viewBox="0 0 90 90" version="1.1" xmlns="http://www.w3.org/2000/svg" xmlns:xlink="http://www.w3.org/1999/xlink">
    <!-- Generator: Sketch 41.2 (35397) - http://www.bohemiancoding.com/sketch -->
    <title>community/card/logo/php</title>
    <desc>Created with Sketch.</desc>
    <defs></defs>
    <g id="Symbols" stroke="none" stroke-width="1" fill="none" fill-rule="evenodd">
        <g id="community/card/logo/php" fill="#01ADFF">
            <path d="M17.1042802,59.1810943 L21.2388238,38.2059016 L30.799956,38.2059016 C34.9344996,38.4648546 37.0017714,40.5364786 37.0017714,44.1618205 C37.0017714,50.3766924 32.0920008,54.0020344 27.6990482,53.7430814 L23.0476867,53.7430814 L22.0140508,59.1810943 L17.1042802,59.1810943 Z M36.3424673,54.0401107 L40.4770109,33.064918 L45.3867815,33.064918 L44.3531456,38.5029309 L49.0045071,38.5029309 C53.1390508,38.7618839 54.6895046,40.8335079 54.1726867,43.4230378 L52.3638238,54.0401107 L47.1956443,54.0401107 L49.0045071,44.4588498 C49.2629161,43.1640848 49.2629161,42.3872259 47.4540533,42.3872259 L43.5779186,42.3872259 L41.2522378,54.0401107 L36.3424673,54.0401107 Z M53.0155628,59.1810943 L57.1501064,38.2059016 L66.7112385,38.2059016 C70.8457821,38.4648546 72.9130539,40.5364786 72.9130539,44.1618205 C72.9130539,50.3766924 68.0032834,54.0020344 63.6103308,53.7430814 L58.9589692,53.7430814 L57.9253333,59.1810943 L53.0155628,59.1810943 Z M24.0813226,49.8587864 L25.3733675,42.0901966 L28.7326841,42.0901966 C30.541547,42.0901966 31.8335919,42.8670556 31.8335919,44.4207735 C31.5751829,48.8229744 29.5079111,49.5998334 27.1822303,49.8587864 L24.0813226,49.8587864 Z M59.9926051,49.8587864 L61.28465,42.0901966 L64.6439667,42.0901966 C66.4528295,42.0901966 67.7448744,42.8670556 67.7448744,44.4207735 C67.4864654,48.8229744 65.4191936,49.5998334 63.0935128,49.8587864 L59.9926051,49.8587864 Z" id="php"></path>
        </g>
    </g>
</svg>

<svg width="90" height="90" viewBox="0 0 90 90" xmlns="http://www.w3.org/2000/svg"><title>community/card/logo/php</title><path d="M17.104 59.181l4.135-20.975H30.8c4.134.259 6.202 2.33 6.202 5.956 0 6.215-4.91 9.84-9.303 9.581h-4.651l-1.034 5.438h-4.91zm19.238-5.14l4.135-20.976h4.91l-1.034 5.438h4.652c4.134.259 5.685 2.33 5.168 4.92l-1.81 10.617h-5.167l1.809-9.581c.258-1.295.258-2.072-1.55-2.072h-3.877L41.252 54.04h-4.91zm16.674 5.14l4.134-20.975h9.561c4.135.259 6.202 2.33 6.202 5.956 0 6.215-4.91 9.84-9.303 9.581H58.96l-1.034 5.438h-4.91zM24.08 49.86l1.292-7.769h3.36c1.809 0 3.1.777 3.1 2.33-.258 4.403-2.325 5.18-4.65 5.439H24.08zm35.912 0l1.292-7.769h3.359c1.809 0 3.1.777 3.1 2.33-.258 4.403-2.325 5.18-4.65 5.439h-3.101z" fill="#01ADFF" fill-rule="evenodd"/></svg>
